docs/img/vax/prv-inf-dis-mod.svg

<svg width="1280" height="720" xmlns="http://www.w3.org/2000/svg" xmlns:xlink="http://www.w3.org/1999/xlink" overflow="hidden"><g><rect x="0" y="0" width="1280" height="720" fill="#FFFFFF"/><path d="M754.5 596C754.5 587.992 760.992 581.5 769 581.5L877 581.5C885.008 581.5 891.5 587.992 891.5 596L891.5 654C891.5 662.008 885.008 668.5 877 668.5L769 668.5C760.992 668.5 754.5 662.008 754.5 654Z" stroke="#042433" stroke-width="3" stroke-miterlimit="8" fill="none" fill-rule="evenodd"/><text font-family="Cambria Math,Cambria Math_MSFontService,sans-serif" font-weight="400" font-size="48" transform="translate(789.932 641)">𝐼</text><text font-family="Cambria Math,Cambria Math_MSFontService,sans-serif" font-weight="400" font-size="35" transform="translate(805.285 650)">𝑣𝑠</text><path d="M0-2 155.341-2 155.341 226.883 151.341 226.883 151.341 0 153.341 2 0 2ZM159.341 224.883 153.341 236.883 147.341 224.883Z" transform="matrix(1.83697e-16 1 1 -1.83697e-16 517 471)"/><text font-family="Cambria Math,Cambria Math_MSFontService,sans-serif" font-weight="400" font-size="48" transform="translate(603.026 597)">𝑝′</text><text font-family="Cambria Math,Cambria Math_MSFontService,sans-serif" font-weight="400" font-size="35" transform="translate(642.193 607)">𝑠</text><path d="M499.5 454C499.5 444.335 507.559 436.5 517.5 436.5 527.441 436.5 535.5 444.335 535.5 454 535.5 463.665 527.441 471.5 517.5 471.5 507.559 471.5 499.5 463.665 499.5 454Z" stroke="#042433" stroke-width="3" stroke-miterlimit="8" fill-rule="evenodd"/><path d="M0-2 263.42-2 263.42 117.708 259.42 117.708 259.42 0 261.42 2 0 2ZM267.42 115.708 261.42 127.708 255.42 115.708Z" transform="matrix(1 0 0 -1 891 624.708)"/><text font-family="Cambria Math,Cambria Math_MSFontService,sans-serif" font-weight="400" font-size="48" transform="translate(962.094 597)">𝛾</text><text font-family="Cambria Math,Cambria Math_MSFontService,sans-serif" font-weight="400" font-size="35" transform="translate(982.667 607)">𝑠</text><path d="M59.5001 93.0003C59.5001 84.992 65.992 78.5001 74.0003 78.5001L182 78.5001C190.008 78.5001 196.5 84.992 196.5 93.0003L196.5 151C196.5 159.008 190.008 165.5 182 165.5L74.0003 165.5C65.992 165.5 59.5001 159.008 59.5001 151Z" stroke="#042433" stroke-width="3" stroke-miterlimit="8" fill="none" fill-rule="evenodd"/><text font-family="Cambria Math,Cambria Math_MSFontService,sans-serif" font-weight="400" font-size="48" transform="translate(109.729 138)">𝑆</text><path d="M758.5 93.0003C758.5 84.992 764.992 78.5001 773 78.5001L881 78.5001C889.008 78.5001 895.5 84.992 895.5 93.0003L895.5 151C895.5 159.008 889.008 165.5 881 165.5L773 165.5C764.992 165.5 758.5 159.008 758.5 151Z" stroke="#042433" stroke-width="3" stroke-miterlimit="8" fill="none" fill-rule="evenodd"/><text font-family="Cambria Math,Cambria Math_MSFontService,sans-serif" font-weight="400" font-size="48" transform="translate(796.186 138)">𝐼</text><text font-family="Cambria Math,Cambria Math_MSFontService,sans-serif" font-weight="400" font-size="35" transform="translate(811.539 148)">𝑚</text><path d="M1084.5 93.0003C1084.5 84.992 1090.99 78.5001 1099 78.5001L1207 78.5001C1215.01 78.5001 1221.5 84.992 1221.5 93.0003L1221.5 151C1221.5 159.008 1215.01 165.5 1207 165.5L1099 165.5C1090.99 165.5 1084.5 159.008 1084.5 151Z" stroke="#042433" stroke-width="3" stroke-miterlimit="8" fill="none" fill-rule="evenodd"/><text font-family="Cambria Math,Cambria Math_MSFontService,sans-serif" font-weight="400" font-size="48" transform="translate(1131.26 138)">𝑅</text><path d="M59.5001 425C59.5001 416.992 65.992 410.5 74.0003 410.5L182 410.5C190.008 410.5 196.5 416.992 196.5 425L196.5 483C196.5 491.008 190.008 497.5 182 497.5L74.0003 497.5C65.992 497.5 59.5001 491.008 59.5001 483Z" stroke="#042433" stroke-width="3" stroke-miterlimit="8" fill="none" fill-rule="evenodd"/><text font-family="Cambria Math,Cambria Math_MSFontService,sans-serif" font-weight="400" font-size="48" transform="translate(99.8953 469)">𝑆</text><text font-family="Cambria Math,Cambria Math_MSFontService,sans-serif" font-weight="400" font-size="35" transform="translate(123.122 479)">𝑣</text><path d="M758.5 425C758.5 416.992 764.992 410.5 773 410.5L881 410.5C889.008 410.5 895.5 416.992 895.5 425L895.5 483C895.5 491.008 889.008 497.5 881 497.5L773 497.5C764.992 497.5 758.5 491.008 758.5 483Z" stroke="#042433" stroke-width="3" stroke-miterlimit="8" fill="none" fill-rule="evenodd"/><text font-family="Cambria Math,Cambria Math_MSFontService,sans-serif" font-weight="400" font-size="48" transform="translate(786.269 469)">𝐼</text><text font-family="Cambria Math,Cambria Math_MSFontService,sans-serif" font-weight="400" font-size="35" transform="translate(801.622 479)">𝑣𝑚</text><path d="M1084.5 425C1084.5 416.992 1090.99 410.5 1099 410.5L1207 410.5C1215.01 410.5 1221.5 416.992 1221.5 425L1221.5 483C1221.5 491.008 1215.01 497.5 1207 497.5L1099 497.5C1090.99 497.5 1084.5 491.008 1084.5 483Z" stroke="#042433" stroke-width="3" stroke-miterlimit="8" fill="none" fill-rule="evenodd"/><text font-family="Cambria Math,Cambria Math_MSFontService,sans-serif" font-weight="400" font-size="48" transform="translate(1121.02 469)">𝑅</text><text font-family="Cambria Math,Cambria Math_MSFontService,sans-serif" font-weight="400" font-size="35" transform="translate(1150.87 479)">𝑣</text><path d="M0.000105041-2 551.71-1.97102 551.71 2.02898-0.000105041 2ZM549.711-5.97113 561.71 0.0295013 549.71 6.02887Z" transform="matrix(1 0 0 -1 196 122.03)"/><path d="M895 120 1073.73 120 1073.73 124 895 124ZM1071.73 116 1083.73 122 1071.73 128Z"/><path d="M196 451 747.712 451 747.712 455 196 455ZM745.71 447 757.71 453 745.71 459Z"/><path d="M895 451 1073.73 451 1073.73 455 895 455ZM1071.73 447 1083.73 453 1071.73 459Z"/><path d="M2-8.59661e-07 2.0001 234.252-1.9999 234.252-2 8.59661e-07ZM6.0001 232.252 0.000104987 244.252-5.9999 232.252Z" transform="matrix(-1 0 0 1 128 165)"/><text font-family="Cambria Math,Cambria Math_MSFontService,sans-serif" font-weight="400" font-size="48" transform="translate(958.415 429)">𝛾</text><text font-family="Cambria Math,Cambria Math_MSFontService,sans-serif" font-weight="400" font-size="35" transform="translate(978.988 439)">𝑚</text><text font-family="Cambria Math,Cambria Math_MSFontService,sans-serif" font-weight="400" font-size="48" transform="translate(305.522 97)">𝜆</text><path d="M372.792 61.1227C377.354 62.3258 380.858 64.9235 383.304 68.9156 385.749 72.9078 386.972 77.7242 386.972 83.3649 386.972 89.0211 385.753 93.8375 383.315 97.8141 380.878 101.791 377.37 104.38 372.792 105.584L372.229 103.779C375.839 102.576 378.522 100.201 380.28 96.6539 382.038 93.1071 382.917 88.5992 382.917 83.1305 382.917 77.8492 382.042 73.4625 380.292 69.9703 378.542 66.4781 375.831 64.1305 372.159 62.9274ZM349.574 61.1227 350.206 62.9274C346.55 64.1305 343.843 66.4781 342.085 69.9703 340.328 73.4625 339.449 77.8492 339.449 83.1305 339.449 88.5992 340.328 93.1071 342.085 96.6539 343.843 100.201 346.527 102.576 350.136 103.779L349.574 105.584C344.996 104.38 341.488 101.791 339.05 97.8141 336.613 93.8375 335.394 89.0211 335.394 83.3649 335.394 77.7242 336.617 72.9078 339.062 68.9156 341.507 64.9235 345.011 62.3258 349.574 61.1227Z" fill-rule="evenodd"/><text font-family="Cambria Math,Cambria Math_MSFontService,sans-serif" font-weight="400" font-size="48" transform="translate(351.095 97)">𝑡</text><text font-family="Cambria Math,Cambria Math_MSFontService,sans-serif" font-weight="400" font-size="48" transform="translate(203.923 429)">(</text><text font-family="Cambria Math,Cambria Math_MSFontService,sans-serif" font-weight="400" font-size="48" transform="translate(223.923 429)">1</text><text font-family="Cambria Math,Cambria Math_MSFontService,sans-serif" font-weight="400" font-size="48" transform="translate(261.09 429)">−</text><text font-family="Cambria Math,Cambria Math_MSFontService,sans-serif" font-weight="400" font-size="48" transform="translate(307.59 429)">𝑉𝐸</text><text font-family="Cambria Math,Cambria Math_MSFontService,sans-serif" font-weight="400" font-size="35" transform="translate(365.01 439)">𝐿</text><text font-family="Cambria Math,Cambria Math_MSFontService,sans-serif" font-weight="400" font-size="48" transform="translate(387.11 429)">)</text><text font-family="Cambria Math,Cambria Math_MSFontService,sans-serif" font-weight="400" font-size="48" transform="translate(407.11 429)">𝜆</text><path d="M474.38 392.936C478.942 394.139 482.446 396.737 484.892 400.729 487.337 404.721 488.56 409.538 488.56 415.178 488.56 420.834 487.341 425.651 484.903 429.627 482.466 433.604 478.958 436.194 474.38 437.397L473.817 435.592C477.427 434.389 480.11 432.014 481.868 428.467 483.626 424.92 484.505 420.413 484.505 414.944 484.505 409.663 483.63 405.276 481.88 401.784 480.13 398.291 477.419 395.944 473.747 394.741ZM451.162 392.936 451.794 394.741C448.138 395.944 445.431 398.291 443.673 401.784 441.915 405.276 441.037 409.663 441.037 414.944 441.037 420.413 441.915 424.92 443.673 428.467 445.431 432.014 448.115 434.389 451.724 435.592L451.162 437.397C446.583 436.194 443.076 433.604 440.638 429.627 438.201 425.651 436.982 420.834 436.982 415.178 436.982 409.538 438.205 404.721 440.65 400.729 443.095 396.737 446.599 394.139 451.162 392.936Z" fill-rule="evenodd"/><text font-family="Cambria Math,Cambria Math_MSFontService,sans-serif" font-weight="400" font-size="48" transform="translate(452.683 429)">𝑡</text><text font-family="Cambria Math,Cambria Math_MSFontService,sans-serif" font-weight="400" font-size="48" transform="translate(86.014 304)">𝜌</text><text font-family="Cambria Math,Cambria Math_MSFontService,sans-serif" font-weight="400" font-size="48" transform="translate(574.246 429)">1</text><text font-family="Cambria Math,Cambria Math_MSFontService,sans-serif" font-weight="400" font-size="48" transform="translate(611.413 429)">−</text><text font-family="Cambria Math,Cambria Math_MSFontService,sans-serif" font-weight="400" font-size="48" transform="translate(657.913 429)">𝑝′</text><text font-family="Cambria Math,Cambria Math_MSFontService,sans-serif" font-weight="400" font-size="35" transform="translate(697.08 439)">𝑠</text><path d="M754.5 263C754.5 254.992 760.992 248.5 769 248.5L877 248.5C885.008 248.5 891.5 254.992 891.5 263L891.5 321C891.5 329.008 885.008 335.5 877 335.5L769 335.5C760.992 335.5 754.5 329.008 754.5 321Z" stroke="#042433" stroke-width="3" stroke-miterlimit="8" fill="none" fill-rule="evenodd"/><text font-family="Cambria Math,Cambria Math_MSFontService,sans-serif" font-weight="400" font-size="48" transform="translate(799.848 308)">𝐼</text><text font-family="Cambria Math,Cambria Math_MSFontService,sans-serif" font-weight="400" font-size="35" transform="translate(815.202 318)">𝑠</text><path d="M0-2 155.341-2 155.341 226.883 151.341 226.883 151.341 0 153.341 2 0 2ZM159.341 224.883 153.341 236.883 147.341 224.883Z" transform="matrix(1.83697e-16 1 1 -1.83697e-16 517 139)"/><text font-family="Cambria Math,Cambria Math_MSFontService,sans-serif" font-weight="400" font-size="48" transform="translate(611.862 266)">𝑝</text><text font-family="Cambria Math,Cambria Math_MSFontService,sans-serif" font-weight="400" font-size="35" transform="translate(636.822 276)">𝑠</text><path d="M499.5 121.5C499.5 111.559 507.559 103.5 517.5 103.5 527.441 103.5 535.5 111.559 535.5 121.5 535.5 131.441 527.441 139.5 517.5 139.5 507.559 139.5 499.5 131.441 499.5 121.5Z" stroke="#042433" stroke-width="3" stroke-miterlimit="8" fill-rule="evenodd"/><path d="M0-2 263.42-2 263.42 116.523 259.42 116.523 259.42 0 261.42 2 0 2ZM267.42 114.523 261.42 126.523 255.42 114.523Z" transform="matrix(1 0 0 -1 891 291.523)"/><text font-family="Cambria Math,Cambria Math_MSFontService,sans-serif" font-weight="400" font-size="48" transform="translate(962.094 264)">𝛾</text><text font-family="Cambria Math,Cambria Math_MSFontService,sans-serif" font-weight="400" font-size="35" transform="translate(982.667 274)">𝑠</text><text font-family="Cambria Math,Cambria Math_MSFontService,sans-serif" font-weight="400" font-size="48" transform="translate(570.04 97)">1</text><text font-family="Cambria Math,Cambria Math_MSFontService,sans-serif" font-weight="400" font-size="48" transform="translate(607.206 97)">−</text><text font-family="Cambria Math,Cambria Math_MSFontService,sans-serif" font-weight="400" font-size="48" transform="translate(653.706 97)">𝑝</text><text font-family="Cambria Math,Cambria Math_MSFontService,sans-serif" font-weight="400" font-size="35" transform="translate(678.666 107)">𝑠</text><text font-family="Cambria Math,Cambria Math_MSFontService,sans-serif" font-weight="400" font-size="48" transform="translate(954.22 97)">𝛾</text><text font-family="Cambria Math,Cambria Math_MSFontService,sans-serif" font-weight="400" font-size="35" transform="translate(974.794 106)">𝑚</text></g></svg>

<svg xmlns="http://www.w3.org/2000/svg" width="1280" height="720" overflow="hidden"><path fill="#fff" d="M0 0h1280v720H0z"/><path fill="none" stroke="#042433" stroke-miterlimit="8" stroke-width="3" d="M754.5 596c0-8.008 6.492-14.5 14.5-14.5h108c8.008 0 14.5 6.492 14.5 14.5v58c0 8.008-6.492 14.5-14.5 14.5H769c-8.008 0-14.5-6.492-14.5-14.5Z"/><text font-family="Cambria Math,Cambria Math_MSFontService,sans-serif" font-size="48" font-weight="400" transform="translate(789.932 641)">𝐼</text><text font-family="Cambria Math,Cambria Math_MSFontService,sans-serif" font-size="35" font-weight="400" transform="translate(805.285 650)">𝑣𝑠</text><path d="M515 471v155.341h228.883v-4H517l2 2V471Zm226.883 159.341 12-6-12-6Z"/><text font-family="Cambria Math,Cambria Math_MSFontService,sans-serif" font-size="48" font-weight="400" transform="translate(603.026 597)">𝑝′</text><text font-family="Cambria Math,Cambria Math_MSFontService,sans-serif" font-size="35" font-weight="400" transform="translate(642.193 607)">𝑠</text><path fill-rule="evenodd" stroke="#042433" stroke-miterlimit="8" stroke-width="3" d="M499.5 454c0-9.665 8.059-17.5 18-17.5s18 7.835 18 17.5-8.059 17.5-18 17.5-18-7.835-18-17.5Z"/><path d="M891 626.708h263.42V507h-4v117.708l2-2H891ZM1158.42 509l-6-12-6 12Z"/><text font-family="Cambria Math,Cambria Math_MSFontService,sans-serif" font-size="48" font-weight="400" transform="translate(962.094 597)">𝛾</text><text font-family="Cambria Math,Cambria Math_MSFontService,sans-serif" font-size="35" font-weight="400" transform="translate(982.667 607)">𝑠</text><path fill="none" stroke="#042433" stroke-miterlimit="8" stroke-width="3" d="M59.5 93c0-8.008 6.492-14.5 14.5-14.5h108c8.008 0 14.5 6.492 14.5 14.5v58c0 8.008-6.492 14.5-14.5 14.5H74c-8.008 0-14.5-6.492-14.5-14.5Z"/><text font-family="Cambria Math,Cambria Math_MSFontService,sans-serif" font-size="48" font-weight="400" transform="translate(109.729 138)">𝑆</text><path fill="none" stroke="#042433" stroke-miterlimit="8" stroke-width="3" d="M758.5 93c0-8.008 6.492-14.5 14.5-14.5h108c8.008 0 14.5 6.492 14.5 14.5v58c0 8.008-6.492 14.5-14.5 14.5H773c-8.008 0-14.5-6.492-14.5-14.5Z"/><text font-family="Cambria Math,Cambria Math_MSFontService,sans-serif" font-size="48" font-weight="400" transform="translate(796.186 138)">𝐼</text><text font-family="Cambria Math,Cambria Math_MSFontService,sans-serif" font-size="35" font-weight="400" transform="translate(811.539 148)">𝑚</text><path fill="none" stroke="#042433" stroke-miterlimit="8" stroke-width="3" d="M1084.5 93c0-8.008 6.49-14.5 14.5-14.5h108c8.01 0 14.5 6.492 14.5 14.5v58c0 8.008-6.49 14.5-14.5 14.5h-108c-8.01 0-14.5-6.492-14.5-14.5Z"/><text font-family="Cambria Math,Cambria Math_MSFontService,sans-serif" font-size="48" font-weight="400" transform="translate(1131.26 138)">𝑅</text><path fill="none" stroke="#042433" stroke-miterlimit="8" stroke-width="3" d="M59.5 425c0-8.008 6.492-14.5 14.5-14.5h108c8.008 0 14.5 6.492 14.5 14.5v58c0 8.008-6.492 14.5-14.5 14.5H74c-8.008 0-14.5-6.492-14.5-14.5Z"/><text font-family="Cambria Math,Cambria Math_MSFontService,sans-serif" font-size="48" font-weight="400" transform="translate(99.895 469)">𝑆</text><text font-family="Cambria Math,Cambria Math_MSFontService,sans-serif" font-size="35" font-weight="400" transform="translate(123.122 479)">𝑣</text><path fill="none" stroke="#042433" stroke-miterlimit="8" stroke-width="3" d="M758.5 425c0-8.008 6.492-14.5 14.5-14.5h108c8.008 0 14.5 6.492 14.5 14.5v58c0 8.008-6.492 14.5-14.5 14.5H773c-8.008 0-14.5-6.492-14.5-14.5Z"/><text font-family="Cambria Math,Cambria Math_MSFontService,sans-serif" font-size="48" font-weight="400" transform="translate(786.269 469)">𝐼</text><text font-family="Cambria Math,Cambria Math_MSFontService,sans-serif" font-size="35" font-weight="400" transform="translate(801.622 479)">𝑣𝑚</text><path fill="none" stroke="#042433" stroke-miterlimit="8" stroke-width="3" d="M1084.5 425c0-8.008 6.49-14.5 14.5-14.5h108c8.01 0 14.5 6.492 14.5 14.5v58c0 8.008-6.49 14.5-14.5 14.5h-108c-8.01 0-14.5-6.492-14.5-14.5Z"/><text font-family="Cambria Math,Cambria Math_MSFontService,sans-serif" font-size="48" font-weight="400" transform="translate(1121.02 469)">𝑅</text><text font-family="Cambria Math,Cambria Math_MSFontService,sans-serif" font-size="35" font-weight="400" transform="translate(1150.87 479)">𝑣</text><path d="m196 124.03 551.71-.029v-4L196 120.03Zm549.711 3.971 11.999-6-12-6ZM895 120h178.73v4H895Zm176.73-4 12 6-12 6ZM196 451h551.712v4H196Zm549.71-4 12 6-12 6ZM895 451h178.73v4H895Zm176.73-4 12 6-12 6ZM126 165v234.252h4V165Zm-4 232.252 6 12 6-12Z"/><text font-family="Cambria Math,Cambria Math_MSFontService,sans-serif" font-size="48" font-weight="400" transform="translate(958.415 429)">𝛾</text><text font-family="Cambria Math,Cambria Math_MSFontService,sans-serif" font-size="35" font-weight="400" transform="translate(978.988 439)">𝑚</text><text font-family="Cambria Math,Cambria Math_MSFontService,sans-serif" font-size="48" font-weight="400" transform="translate(305.522 97)">𝜆</text><path fill-rule="evenodd" d="M372.792 61.123q6.843 1.804 10.512 7.793 3.668 5.988 3.668 14.449 0 8.484-3.657 14.45-3.656 5.963-10.523 7.769l-.563-1.805q5.415-1.805 8.051-7.125t2.637-13.523q0-7.922-2.625-13.16t-8.133-7.044Zm-23.218 0 .632 1.804q-5.484 1.805-8.121 7.043-2.636 5.24-2.636 13.16 0 8.204 2.636 13.524t8.051 7.125l-.562 1.805q-6.867-1.805-10.524-7.77t-3.656-14.45q0-8.46 3.668-14.448t10.512-7.793"/><text font-family="Cambria Math,Cambria Math_MSFontService,sans-serif" font-size="48" font-weight="400" transform="translate(351.095 97)">𝑡</text><text font-family="Cambria Math,Cambria Math_MSFontService,sans-serif" font-size="48" font-weight="400" transform="translate(203.923 429)">(</text><text font-family="Cambria Math,Cambria Math_MSFontService,sans-serif" font-size="48" font-weight="400" transform="translate(223.923 429)">1</text><text font-family="Cambria Math,Cambria Math_MSFontService,sans-serif" font-size="48" font-weight="400" transform="translate(261.09 429)">−</text><text font-family="Cambria Math,Cambria Math_MSFontService,sans-serif" font-size="48" font-weight="400" transform="translate(307.59 429)">𝑉𝐸</text><text font-family="Cambria Math,Cambria Math_MSFontService,sans-serif" font-size="35" font-weight="400" transform="translate(365.01 439)">𝐿</text><text font-family="Cambria Math,Cambria Math_MSFontService,sans-serif" font-size="48" font-weight="400" transform="translate(387.11 429)">)</text><text font-family="Cambria Math,Cambria Math_MSFontService,sans-serif" font-size="48" font-weight="400" transform="translate(407.11 429)">𝜆</text><path fill-rule="evenodd" d="M474.38 392.936q6.843 1.805 10.512 7.793 3.668 5.988 3.668 14.449 0 8.485-3.657 14.449-3.656 5.966-10.523 7.77l-.563-1.805q5.414-1.805 8.051-7.125t2.637-13.523q0-7.922-2.625-13.16t-8.133-7.043Zm-23.218 0 .632 1.805q-5.484 1.804-8.121 7.043t-2.636 13.16q0 8.203 2.636 13.523t8.051 7.125l-.562 1.805q-6.868-1.804-10.524-7.77-3.656-5.964-3.656-14.449 0-8.46 3.668-14.449t10.512-7.793"/><text font-family="Cambria Math,Cambria Math_MSFontService,sans-serif" font-size="48" font-weight="400" transform="translate(452.683 429)">𝑡</text><text font-family="Cambria Math,Cambria Math_MSFontService,sans-serif" font-size="48" font-weight="400" transform="translate(86.014 304)">𝜌</text><text font-family="Cambria Math,Cambria Math_MSFontService,sans-serif" font-size="48" font-weight="400" transform="translate(574.246 429)">1</text><text font-family="Cambria Math,Cambria Math_MSFontService,sans-serif" font-size="48" font-weight="400" transform="translate(611.413 429)">−</text><text font-family="Cambria Math,Cambria Math_MSFontService,sans-serif" font-size="48" font-weight="400" transform="translate(657.913 429)">𝑝′</text><text font-family="Cambria Math,Cambria Math_MSFontService,sans-serif" font-size="35" font-weight="400" transform="translate(697.08 439)">𝑠</text><path fill="none" stroke="#042433" stroke-miterlimit="8" stroke-width="3" d="M754.5 263c0-8.008 6.492-14.5 14.5-14.5h108c8.008 0 14.5 6.492 14.5 14.5v58c0 8.008-6.492 14.5-14.5 14.5H769c-8.008 0-14.5-6.492-14.5-14.5Z"/><text font-family="Cambria Math,Cambria Math_MSFontService,sans-serif" font-size="48" font-weight="400" transform="translate(799.848 308)">𝐼</text><text font-family="Cambria Math,Cambria Math_MSFontService,sans-serif" font-size="35" font-weight="400" transform="translate(815.202 318)">𝑠</text><path d="M515 139v155.341h228.883v-4H517l2 2V139Zm226.883 159.341 12-6-12-6Z"/><text font-family="Cambria Math,Cambria Math_MSFontService,sans-serif" font-size="48" font-weight="400" transform="translate(611.862 266)">𝑝</text><text font-family="Cambria Math,Cambria Math_MSFontService,sans-serif" font-size="35" font-weight="400" transform="translate(636.822 276)">𝑠</text><path fill-rule="evenodd" stroke="#042433" stroke-miterlimit="8" stroke-width="3" d="M499.5 121.5c0-9.941 8.059-18 18-18s18 8.059 18 18-8.059 18-18 18-18-8.059-18-18Z"/><path d="M891 293.523h263.42V175h-4v116.523l2-2H891ZM1158.42 177l-6-12-6 12Z"/><text font-family="Cambria Math,Cambria Math_MSFontService,sans-serif" font-size="48" font-weight="400" transform="translate(962.094 264)">𝛾</text><text font-family="Cambria Math,Cambria Math_MSFontService,sans-serif" font-size="35" font-weight="400" transform="translate(982.667 274)">𝑠</text><text font-family="Cambria Math,Cambria Math_MSFontService,sans-serif" font-size="48" font-weight="400" transform="translate(570.04 97)">1</text><text font-family="Cambria Math,Cambria Math_MSFontService,sans-serif" font-size="48" font-weight="400" transform="translate(607.206 97)">−</text><text font-family="Cambria Math,Cambria Math_MSFontService,sans-serif" font-size="48" font-weight="400" transform="translate(653.706 97)">𝑝</text><text font-family="Cambria Math,Cambria Math_MSFontService,sans-serif" font-size="35" font-weight="400" transform="translate(678.666 107)">𝑠</text><text font-family="Cambria Math,Cambria Math_MSFontService,sans-serif" font-size="48" font-weight="400" transform="translate(954.22 97)">𝛾</text><text font-family="Cambria Math,Cambria Math_MSFontService,sans-serif" font-size="35" font-weight="400" transform="translate(974.794 106)">𝑚</text></svg>
